public/LogoV6.svg

<svg width="598" height="98" viewBox="0 0 598 98" fill="none" xmlns="http://www.w3.org/2000/svg">
<path d="M137.09 79.0195V19.5195H146.95L167.01 61.6795H167.1L187.33 19.5195H197.19V79.0195H189.45V32.3495H189.28L170.92 70.5195H163.36L144.92 32.4395H144.75V79.0195H137.1H137.09Z" fill="#161616"/>
<path d="M221.41 80.0396C217.95 80.0396 215.08 79.4496 212.78 78.2596C210.49 77.0696 208.79 75.4796 207.68 73.4996C206.58 71.5196 206.02 69.3596 206.02 67.0396C206.02 64.2096 206.76 61.7996 208.23 59.8196C209.7 57.8396 211.8 56.3197 214.52 55.2697C217.24 54.2197 220.53 53.6996 224.38 53.6996H235.68C235.68 51.0896 235.27 48.9396 234.45 47.2396C233.63 45.5396 232.45 44.2696 230.92 43.4196C229.39 42.5696 227.52 42.1396 225.31 42.1396C222.65 42.1396 220.32 42.8096 218.34 44.1396C216.35 45.4696 215.14 47.4696 214.68 50.1296H206.86C207.2 47.0696 208.22 44.4896 209.92 42.3896C211.62 40.2896 213.83 38.6796 216.55 37.5496C219.27 36.4196 222.19 35.8496 225.31 35.8496C229.28 35.8496 232.6 36.5697 235.3 38.0197C237.99 39.4697 240 41.4596 241.33 44.0096C242.66 46.5596 243.33 49.5896 243.33 53.1096V79.0396H236.7L236.11 71.8196H235.94C235.31 73.0096 234.52 74.1296 233.56 75.1796C232.6 76.2296 231.52 77.0897 230.33 77.7697C229.14 78.4497 227.81 78.9996 226.33 79.4296C224.86 79.8596 223.21 80.0696 221.4 80.0696L221.41 80.0396ZM222.86 73.6596C224.9 73.6596 226.71 73.2596 228.3 72.4696C229.89 71.6796 231.2 70.5996 232.25 69.2396C233.3 67.8796 234.12 66.3496 234.72 64.6496C235.31 62.9496 235.61 61.1896 235.61 59.3796H225.07C222.35 59.3796 220.2 59.6896 218.61 60.3196C217.02 60.9396 215.87 61.7896 215.17 62.8696C214.46 63.9496 214.11 65.1896 214.11 66.6096C214.11 68.0296 214.43 69.3396 215.09 70.3896C215.74 71.4396 216.73 72.2496 218.06 72.8096C219.39 73.3796 220.99 73.6596 222.86 73.6596Z" fill="#161616"/>
<path d="M252.44 79.0201V36.86H259.32L259.91 45.36H260.08C261.21 43.04 262.49 41.18 263.9 39.79C265.32 38.4 266.99 37.4001 268.92 36.7701C270.85 36.1501 273.11 35.8301 275.72 35.8301V43.91H273.68C271.64 43.91 269.78 44.1501 268.11 44.6301C266.44 45.1101 265.01 45.92 263.82 47.05C262.63 48.18 261.71 49.61 261.06 51.34C260.41 53.07 260.08 55.2101 260.08 57.7601V79.0101H252.43L252.44 79.0201Z" fill="#161616"/>
<path d="M282.359 79.0202V18.4102H290.009V79.0202H282.359ZM308.959 79.0202L288.729 55.8102L306.919 36.8502H316.269L295.189 58.6102V53.0002L318.739 79.0102H308.959V79.0202Z" fill="#161616"/>
<path d="M339.221 80.04C335.081 80.04 331.461 79.12 328.341 77.28C325.221 75.44 322.771 72.86 320.991 69.54C319.211 66.23 318.311 62.3901 318.311 58.0201C318.311 53.6501 319.191 49.6501 320.941 46.3301C322.691 43.0101 325.161 40.44 328.341 38.59C331.511 36.75 335.201 35.8301 339.391 35.8301C343.581 35.8301 347.001 36.75 349.971 38.59C352.941 40.43 355.251 42.86 356.901 45.86C358.541 48.86 359.371 52.1201 359.371 55.6401V57.5101C359.371 58.1901 359.341 58.93 359.281 59.72H324.001V54.03H351.631C351.521 50.29 350.301 47.3701 347.971 45.2701C345.651 43.1701 342.731 42.1301 339.221 42.1301C336.781 42.1301 334.551 42.6501 332.501 43.7001C330.461 44.7501 328.841 46.3101 327.661 48.3701C326.471 50.4401 325.881 53.03 325.881 56.15V58.53C325.881 61.82 326.491 64.5801 327.711 66.8201C328.931 69.0601 330.571 70.7401 332.641 71.8801C334.711 73.0101 336.901 73.5801 339.231 73.5801C342.011 73.5801 344.341 72.94 346.241 71.67C348.141 70.4 349.571 68.62 350.531 66.36H358.181C357.391 68.97 356.141 71.3101 354.441 73.3701C352.741 75.4401 350.621 77.0701 348.061 78.2601C345.501 79.4501 342.561 80.04 339.221 80.04Z" fill="#161616"/>
<path d="M382.83 79.0201C380.22 79.0201 377.95 78.61 376.03 77.79C374.1 76.97 372.63 75.59 371.61 73.67C370.59 71.74 370.08 69.14 370.08 65.85V42.98H362.68V36.86H370.08L370.93 26.5801H377.73V36.86H389.97V42.98H377.73V65.85C377.73 68.51 378.25 70.33 379.3 71.29C380.35 72.25 382.2 72.73 384.87 72.73H389.29V79.0201H382.83Z" fill="#161616"/>
<path d="M397.28 97.1299V36.8599H404L404.68 44.0799H404.85C405.87 42.4899 407.14 41.0599 408.67 39.7899C410.2 38.5199 411.94 37.5399 413.9 36.8599C415.86 36.1799 418.08 35.8398 420.57 35.8398C424.65 35.8398 428.23 36.8199 431.32 38.7699C434.41 40.7199 436.8 43.3599 438.5 46.6799C440.2 49.9899 441.05 53.7798 441.05 58.0298C441.05 62.2798 440.2 65.9898 438.5 69.3398C436.8 72.6798 434.39 75.2999 431.27 77.1999C428.15 79.0999 424.41 80.0499 420.05 80.0499C416.54 80.0499 413.49 79.3098 410.91 77.8398C408.33 76.3698 406.33 74.4699 404.92 72.1399V97.1299H397.27H397.28ZM419.21 73.3299C421.99 73.3299 424.44 72.6899 426.56 71.4199C428.69 70.1499 430.33 68.3499 431.49 66.0199C432.65 63.6999 433.23 61.0298 433.23 58.0298C433.23 55.0298 432.65 52.1899 431.49 49.8699C430.33 47.5499 428.68 45.7498 426.56 44.4698C424.43 43.1898 421.98 42.5599 419.21 42.5599C416.44 42.5599 413.97 43.1998 411.82 44.4698C409.66 45.7398 407.99 47.5399 406.8 49.8699C405.61 52.1899 405.02 54.9098 405.02 58.0298C405.02 61.1498 405.61 63.6999 406.8 66.0199C407.99 68.3399 409.66 70.1399 411.82 71.4199C413.97 72.6999 416.44 73.3299 419.21 73.3299Z" fill="#161616"/>
<path d="M449.471 79.0202V18.4102H457.121V79.0202H449.471Z" fill="#161616"/>
<path d="M481.259 80.0396C477.799 80.0396 474.929 79.4496 472.629 78.2596C470.339 77.0696 468.639 75.4796 467.529 73.4996C466.429 71.5196 465.869 69.3596 465.869 67.0396C465.869 64.2096 466.609 61.7996 468.079 59.8196C469.549 57.8396 471.649 56.3197 474.369 55.2697C477.089 54.2197 480.379 53.6996 484.229 53.6996H495.529C495.529 51.0896 495.119 48.9396 494.299 47.2396C493.479 45.5396 492.299 44.2696 490.769 43.4196C489.239 42.5696 487.369 42.1396 485.159 42.1396C482.499 42.1396 480.169 42.8096 478.189 44.1396C476.199 45.4696 474.989 47.4696 474.529 50.1296H466.709C467.049 47.0696 468.069 44.4896 469.769 42.3896C471.469 40.2896 473.679 38.6796 476.399 37.5496C479.119 36.4196 482.039 35.8496 485.159 35.8496C489.129 35.8496 492.449 36.5697 495.149 38.0197C497.839 39.4697 499.849 41.4596 501.179 44.0096C502.509 46.5596 503.179 49.5896 503.179 53.1096V79.0396H496.549L495.959 71.8196H495.789C495.159 73.0096 494.369 74.1296 493.409 75.1796C492.449 76.2296 491.369 77.0897 490.179 77.7697C488.989 78.4497 487.659 78.9996 486.179 79.4296C484.709 79.8596 483.059 80.0696 481.249 80.0696L481.259 80.0396ZM482.699 73.6596C484.739 73.6596 486.549 73.2596 488.139 72.4696C489.729 71.6796 491.039 70.5996 492.089 69.2396C493.139 67.8796 493.959 66.3496 494.559 64.6496C495.149 62.9496 495.449 61.1896 495.449 59.3796H484.909C482.189 59.3796 480.039 59.6896 478.449 60.3196C476.859 60.9396 475.709 61.7896 475.009 62.8696C474.299 63.9496 473.949 65.1896 473.949 66.6096C473.949 68.0296 474.269 69.3396 474.929 70.3896C475.579 71.4396 476.569 72.2496 477.899 72.8096C479.229 73.3796 480.829 73.6596 482.699 73.6596Z" fill="#161616"/>
<path d="M531.67 80.04C527.48 80.04 523.78 79.12 520.58 77.28C517.38 75.44 514.88 72.86 513.1 69.54C511.32 66.23 510.42 62.3901 510.42 58.0201C510.42 53.6501 511.34 49.73 513.18 46.42C515.02 43.11 517.54 40.5101 520.74 38.6401C523.94 36.7701 527.58 35.8301 531.66 35.8301C536.76 35.8301 541.02 37.15 544.45 39.78C547.88 42.42 550.04 45.94 550.95 50.36H543.04C542.47 47.75 541.14 45.7401 539.04 44.3201C536.94 42.9001 534.45 42.1901 531.56 42.1901C529.29 42.1901 527.12 42.7601 525.06 43.8901C522.99 45.0201 521.35 46.7701 520.13 49.1201C518.91 51.4701 518.3 54.4 518.3 57.92C518.3 60.41 518.65 62.64 519.36 64.59C520.07 66.54 521.02 68.1901 522.21 69.5201C523.4 70.8501 524.8 71.8401 526.42 72.5001C528.04 73.1501 529.75 73.48 531.56 73.48C533.49 73.48 535.24 73.17 536.83 72.55C538.42 71.93 539.75 71.0201 540.83 69.8301C541.91 68.6401 542.65 67.2001 543.04 65.5001H550.95C550.04 69.8601 547.88 73.38 544.45 76.04C541.02 78.7 536.76 80.03 531.66 80.03L531.67 80.04Z" fill="#161616"/>
<path d="M576.971 80.04C572.831 80.04 569.211 79.12 566.091 77.28C562.971 75.44 560.521 72.86 558.741 69.54C556.961 66.23 556.061 62.3901 556.061 58.0201C556.061 53.6501 556.941 49.6501 558.691 46.3301C560.441 43.0201 562.911 40.44 566.091 38.59C569.261 36.75 572.941 35.8301 577.141 35.8301C581.341 35.8301 584.751 36.75 587.721 38.59C590.691 40.43 593.001 42.86 594.651 45.86C596.291 48.86 597.121 52.1201 597.121 55.6401V57.5101C597.121 58.1901 597.091 58.93 597.041 59.72H561.76V54.03H589.391C589.281 50.29 588.061 47.3701 585.731 45.2701C583.411 43.1701 580.491 42.1301 576.981 42.1301C574.541 42.1301 572.3 42.6501 570.26 43.7001C568.22 44.7501 566.601 46.3101 565.421 48.3701C564.231 50.4401 563.641 53.03 563.641 56.15V58.53C563.641 61.82 564.251 64.5801 565.471 66.8201C566.691 69.0601 568.331 70.7401 570.401 71.8801C572.471 73.0101 574.661 73.5801 576.991 73.5801C579.771 73.5801 582.101 72.94 584.001 71.67C585.901 70.4 587.331 68.62 588.291 66.36H595.941C595.151 68.97 593.901 71.3101 592.201 73.3701C590.5 75.4401 588.37 77.0701 585.82 78.2601C583.27 79.4501 580.321 80.04 576.981 80.04H576.971Z" fill="#161616"/>
<path d="M81.7493 31.4688L75.4793 45.5488C83.7793 45.6888 90.4893 52.4788 90.4893 60.8188C90.4893 69.1588 83.6293 76.0988 75.2093 76.0988C70.7993 76.0988 66.8393 74.2088 64.0493 71.2188L57.7793 85.2988C62.6993 88.8088 68.7193 90.8888 75.2093 90.8888C91.7893 90.8888 105.279 77.3988 105.279 60.8188C105.279 46.4788 95.1893 34.4688 81.7393 31.4688H81.7493Z" fill="#161616"/>
<path d="M73.1002 0L53.4002 44.24L32.9902 90.07H49.1802L89.2802 0H73.1002Z" fill="#161616"/>
<path d="M37.17 58.88L15.74 0H0L29.4 80.77L28.51 78.33L37.17 58.88Z" fill="#161616"/>
<path d="M37.1698 58.8789L28.5098 78.3289L32.7798 90.0689H32.9898L41.5398 70.8889L37.1698 58.8789Z" fill="#0AD494"/>
</svg>

<svg xmlns="http://www.w3.org/2000/svg" width="598" height="98" fill="none"><path fill="#161616" d="M137.09 79.02v-59.5h9.86l20.06 42.16h.09l20.23-42.16h9.86v59.5h-7.74V32.35h-.17l-18.36 38.17h-7.56l-18.44-38.08h-.17v46.58h-7.66M221.41 80.04c-3.46 0-6.33-.59-8.63-1.78-2.29-1.19-3.99-2.78-5.1-4.76-1.1-1.98-1.66-4.14-1.66-6.46 0-2.83.74-5.24 2.21-7.22s3.57-3.5 6.29-4.55 6.01-1.57 9.86-1.57h11.3c0-2.61-.41-4.76-1.23-6.46s-2-2.97-3.53-3.82-3.4-1.28-5.61-1.28c-2.66 0-4.99.67-6.97 2-1.99 1.33-3.2 3.33-3.66 5.99h-7.82q.51-4.59 3.06-7.74c1.7-2.1 3.91-3.71 6.63-4.84s5.64-1.7 8.76-1.7c3.97 0 7.29.72 9.99 2.17 2.69 1.45 4.7 3.44 6.03 5.99s2 5.58 2 9.1v25.93h-6.63l-.59-7.22h-.17a16.2 16.2 0 0 1-2.38 3.36 13.3 13.3 0 0 1-3.23 2.59c-1.19.68-2.52 1.23-4 1.66-1.47.43-3.12.64-4.93.64zm1.45-6.38c2.04 0 3.85-.4 5.44-1.19s2.9-1.87 3.95-3.23 1.87-2.89 2.47-4.59c.59-1.7.89-3.46.89-5.27h-10.54c-2.72 0-4.87.31-6.46.94-1.59.62-2.74 1.47-3.44 2.55-.71 1.08-1.06 2.32-1.06 3.74s.32 2.73.98 3.78c.65 1.05 1.64 1.86 2.97 2.42 1.33.57 2.93.85 4.8.85M252.44 79.02V36.86h6.88l.59 8.5h.17c1.13-2.32 2.41-4.18 3.82-5.57 1.42-1.39 3.09-2.39 5.02-3.02 1.93-.62 4.19-.94 6.8-.94v8.08h-2.04c-2.04 0-3.9.24-5.57.72s-3.1 1.29-4.29 2.42q-1.785 1.695-2.76 4.29c-.65 1.73-.98 3.87-.98 6.42v21.25h-7.65zM282.359 79.02V18.41h7.65v60.61zm26.6 0-20.23-23.21 18.19-18.96h9.35l-21.08 21.76V53l23.55 26.01h-9.78zM339.221 80.04c-4.14 0-7.76-.92-10.88-2.76q-4.68-2.76-7.35-7.74c-1.78-3.31-2.68-7.15-2.68-11.52s.88-8.37 2.63-11.69 4.22-5.89 7.4-7.74c3.17-1.84 6.86-2.76 11.05-2.76s7.61.92 10.58 2.76 5.28 4.27 6.93 7.27c1.64 3 2.47 6.26 2.47 9.78v1.87c0 .68-.03 1.42-.09 2.21h-35.28v-5.69h27.63q-.165-5.61-3.66-8.76c-2.32-2.1-5.24-3.14-8.75-3.14-2.44 0-4.67.52-6.72 1.57-2.04 1.05-3.66 2.61-4.84 4.67-1.19 2.07-1.78 4.66-1.78 7.78v2.38c0 3.29.61 6.05 1.83 8.29s2.86 3.92 4.93 5.06c2.07 1.13 4.26 1.7 6.59 1.7 2.78 0 5.11-.64 7.01-1.91s3.33-3.05 4.29-5.31h7.65c-.79 2.61-2.04 4.95-3.74 7.01-1.7 2.07-3.82 3.7-6.38 4.89s-5.5 1.78-8.84 1.78M382.83 79.02c-2.61 0-4.88-.41-6.8-1.23-1.93-.82-3.4-2.2-4.42-4.12-1.02-1.93-1.53-4.53-1.53-7.82V42.98h-7.4v-6.12h7.4l.85-10.28h6.8v10.28h12.24v6.12h-12.24v22.87c0 2.66.52 4.48 1.57 5.44s2.9 1.44 5.57 1.44h4.42v6.29zM397.28 97.13V36.86H404l.68 7.22h.17c1.02-1.59 2.29-3.02 3.82-4.29a16.7 16.7 0 0 1 5.23-2.93c1.96-.68 4.18-1.02 6.67-1.02 4.08 0 7.66.98 10.75 2.93s5.48 4.59 7.18 7.91c1.7 3.31 2.55 7.1 2.55 11.35s-.85 7.96-2.55 11.31q-2.55 5.01-7.23 7.86t-11.22 2.85c-3.51 0-6.56-.74-9.14-2.21s-4.58-3.37-5.99-5.7v24.99h-7.65zm21.93-23.8c2.78 0 5.23-.64 7.35-1.91 2.13-1.27 3.77-3.07 4.93-5.4 1.16-2.32 1.74-4.99 1.74-7.99s-.58-5.84-1.74-8.16-2.81-4.12-4.93-5.4c-2.13-1.28-4.58-1.91-7.35-1.91s-5.24.64-7.39 1.91c-2.16 1.27-3.83 3.07-5.02 5.4-1.19 2.32-1.78 5.04-1.78 8.16s.59 5.67 1.78 7.99 2.86 4.12 5.02 5.4c2.15 1.28 4.62 1.91 7.39 1.91M449.471 79.02V18.41h7.65v60.61zM481.259 80.04c-3.46 0-6.33-.59-8.63-1.78-2.29-1.19-3.99-2.78-5.1-4.76-1.1-1.98-1.66-4.14-1.66-6.46 0-2.83.74-5.24 2.21-7.22s3.57-3.5 6.29-4.55 6.01-1.57 9.86-1.57h11.3c0-2.61-.41-4.76-1.23-6.46s-2-2.97-3.53-3.82-3.4-1.28-5.61-1.28c-2.66 0-4.99.67-6.97 2-1.99 1.33-3.2 3.33-3.66 5.99h-7.82q.51-4.59 3.06-7.74c1.7-2.1 3.91-3.71 6.63-4.84s5.64-1.7 8.76-1.7c3.97 0 7.29.72 9.99 2.17 2.69 1.45 4.7 3.44 6.03 5.99s2 5.58 2 9.1v25.93h-6.63l-.59-7.22h-.17a16.2 16.2 0 0 1-2.38 3.36 13.3 13.3 0 0 1-3.23 2.59c-1.19.68-2.52 1.23-4 1.66-1.47.43-3.12.64-4.93.64zm1.44-6.38c2.04 0 3.85-.4 5.44-1.19s2.9-1.87 3.95-3.23 1.87-2.89 2.47-4.59c.59-1.7.89-3.46.89-5.27h-10.54c-2.72 0-4.87.31-6.46.94-1.59.62-2.74 1.47-3.44 2.55-.71 1.08-1.06 2.32-1.06 3.74s.32 2.73.98 3.78c.65 1.05 1.64 1.86 2.97 2.42 1.33.57 2.93.85 4.8.85M531.67 80.04c-4.19 0-7.89-.92-11.09-2.76s-5.7-4.42-7.48-7.74c-1.78-3.31-2.68-7.15-2.68-11.52s.92-8.29 2.76-11.6 4.36-5.91 7.56-7.78 6.84-2.81 10.92-2.81c5.1 0 9.36 1.32 12.79 3.95 3.43 2.64 5.59 6.16 6.5 10.58h-7.91c-.57-2.61-1.9-4.62-4-6.04s-4.59-2.13-7.48-2.13c-2.27 0-4.44.57-6.5 1.7-2.07 1.13-3.71 2.88-4.93 5.23s-1.83 5.28-1.83 8.8c0 2.49.35 4.72 1.06 6.67s1.66 3.6 2.85 4.93a11.3 11.3 0 0 0 4.21 2.98c1.62.65 3.33.98 5.14.98 1.93 0 3.68-.31 5.27-.93s2.92-1.53 4-2.72 1.82-2.63 2.21-4.33h7.91c-.91 4.36-3.07 7.88-6.5 10.54s-7.69 3.99-12.79 3.99zM576.971 80.04c-4.14 0-7.76-.92-10.88-2.76q-4.68-2.76-7.35-7.74c-1.78-3.31-2.68-7.15-2.68-11.52s.88-8.37 2.63-11.69c1.75-3.31 4.22-5.89 7.4-7.74 3.17-1.84 6.85-2.76 11.05-2.76s7.61.92 10.58 2.76 5.28 4.27 6.93 7.27c1.64 3 2.47 6.26 2.47 9.78v1.87c0 .68-.03 1.42-.08 2.21H561.76v-5.69h27.631q-.165-5.61-3.66-8.76c-2.32-2.1-5.24-3.14-8.75-3.14-2.44 0-4.681.52-6.721 1.57s-3.659 2.61-4.839 4.67c-1.19 2.07-1.78 4.66-1.78 7.78v2.38c0 3.29.61 6.05 1.83 8.29s2.86 3.92 4.93 5.06c2.07 1.13 4.26 1.7 6.59 1.7 2.78 0 5.11-.64 7.01-1.91s3.33-3.05 4.29-5.31h7.65c-.79 2.61-2.04 4.95-3.74 7.01-1.701 2.07-3.831 3.7-6.381 4.89s-5.499 1.78-8.839 1.78zM81.75 31.469l-6.27 14.08c8.3.14 15.01 6.93 15.01 15.27s-6.86 15.28-15.28 15.28c-4.41 0-8.37-1.89-11.16-4.88l-6.27 14.08a29.93 29.93 0 0 0 17.43 5.59c16.58 0 30.069-13.49 30.069-30.07 0-14.34-10.09-26.35-23.54-29.35zM73.1 0 53.4 44.24 32.99 90.07h16.19L89.28 0zM37.17 58.88 15.74 0H0l29.4 80.77-.89-2.44z"/><path fill="#0AD494" d="m37.17 58.879-8.66 19.45 4.27 11.74h.21l8.55-19.18z"/></svg>
